X:1
T:Title
%%score { ( 1 3 ) | ( 2 4 ) }
L:1/8
M:6/8
K:Bb
V:1 treble nm="Grand Piano"
V:3 treble 
V:2 bass 
V:4 bass 
V:1
 z3 z2[Q:1/4=90] [DF] | [DF]>[_D=E][=DF] [Fd]>[_Ec][DB] | [DB]3 [DF]2 [DB] | %3
 [FA][EG][FA] [Ac][GB][EG] |[M:5/8] [DF]- [DF]3 z |[M:1/8] [DF] |[M:3/4] E>F GA- A/B/c | %7
 [Fd]2 [Ec] [DB]2 [Fd] | [=Ed]2 [Ec]B- B/A/[EB] |[M:5/8] c- c3 z |[M:1/8] d/d/ | %11
[M:3/4] [Ge]2 [Ge]B z [^Fe] | [Fd]2 [=E_d][F=d] z d | d2 AB AG |[M:5/8] D- D3 z |[M:1/8] d/e/ | %16
[M:3/4] f2 fd c[_Ad] |[M:7/8] f2 z [B,GB]3 [^Fc] |[M:3/4] d>e d d2 c |[M:5/8] [DB]-[DB]- [DB]3 |] %20
V:2
 z3 z2 [B,,B,] | [B,,B,]2 [B,,B,] [B,,B,]2 [B,,B,] | [B,,F,]3 [B,,B,]2 [B,,B,] | %3
 [E,B,]2 [E,B,] [E,B,]2 [E,B,] |[M:5/8] [B,,B,]- [B,,B,]3 z |[M:1/8] [B,,B,] | %6
[M:3/4] [F,A,C]2 [F,A,E] [F,CE]2 [F,A,E] | [B,,B,]3 [B,,F,]2 [B,,B,] | %8
 [C,B,]2 [C,B,] [C,G,]2 [C,G,] |[M:5/8] [F,A,F]- [F,A,F]3 z |[M:1/8][K:treble] [B,F]/[B,F]/ | %11
[M:3/4][K:bass] [E,B,]2 .[E,B,]2[K:treble] c[K:bass][E,B,] | [B,,B,]3 [B,,B,] z D | D2 A,B, A,G, | %14
[M:5/8] D,- D,3 z |[M:1/8][K:treble] [B,F]/[B,CF]/ | %16
[M:3/4] [B,DF]2 [B,DF][K:bass] [B,,B,]2 [B,,B,] |[M:7/8] z2[K:treble] e E,3[K:bass] [E,B,] | %18
[M:3/4] [F,B,F]2 [F,B,F] [F,A,F]2 [F,A,E] |[M:5/8] [B,,B,]-[B,,B,]- [B,,B,]3 |] %20
V:3
 x6 | x6 | x6 | x6 |[M:5/8] x5 |[M:1/8] x |[M:3/4] x6 | x6 | z2 z .=E3 |[M:5/8] x5 |[M:1/8] x | %11
[M:3/4] z2 z .[B,G]3 | x6 | x6 |[M:5/8] x5 |[M:1/8] x |[M:3/4] z2 z ._A3 |[M:7/8] G3 z z z2 | %18
[M:3/4] x6 |[M:5/8] x5 |] %20
V:4
 x6 | x6 | x6 | x6 |[M:5/8] x5 |[M:1/8] x |[M:3/4] x6 | x6 | x6 |[M:5/8] x5 |[M:1/8][K:treble] x | %11
[M:3/4][K:bass] z2 z .E,3[K:treble][K:bass] | x6 | x6 |[M:5/8] x5 |[M:1/8][K:treble] x | %16
[M:3/4] x3[K:bass] x3 |[M:7/8] [E,B,]3[K:treble] z z z2[K:bass] |[M:3/4] x6 |[M:5/8] x5 |] %20

